assets/images/icons/website.svg

<?xml version="1.0" encoding="utf-8"?>
<!-- Generator: Adobe Illustrator 17.0.0, SVG Export Plug-In . SVG Version: 6.00 Build 0)  -->
<!DOCTYPE svg PUBLIC "-//W3C//DTD SVG 1.1//EN" "http://www.w3.org/Graphics/SVG/1.1/DTD/svg11.dtd">
<svg version="1.1" id="Layer_1" xmlns="http://www.w3.org/2000/svg" xmlns:xlink="http://www.w3.org/1999/xlink" x="0px" y="0px"
	 width="24px" height="24px" viewBox="0 0 24 24" enable-background="new 0 0 24 24" xml:space="preserve">
<g>
	<g>
		<path fill="#EF3D5B" d="M14.161,17.771c0,0.663,0,1.245,0,1.919c0.585,0,1.147,0.007,1.708-0.002
			c0.513-0.008,0.741,0.214,0.748,0.745c0.018,1.373,0.033,1.372-1.341,1.372c-2.358,0-4.716,0.002-7.075-0.001
			c-0.712-0.001-0.81-0.108-0.817-0.828c-0.002-0.197,0.006-0.393-0.001-0.59c-0.019-0.472,0.222-0.69,0.675-0.694
			c0.569-0.005,1.138-0.001,1.754-0.001c0-0.632,0-1.23,0-1.92c-0.19,0-0.396,0-0.603,0c-2.614,0-5.227,0.002-7.841-0.001
			c-0.978-0.001-1.365-0.379-1.365-1.351c-0.004-5.031-0.004-10.062,0-15.093C0.004,0.393,0.401,0.003,1.34,0.002
			c7.114-0.003,14.228-0.003,21.342,0c0.983,0,1.317,0.341,1.317,1.309C24,6.323,24,11.334,23.999,16.345
			c0,1.051-0.373,1.425-1.413,1.425c-2.574,0-5.149,0-7.723,0C14.649,17.771,14.435,17.771,14.161,17.771z M22.097,1.989
			c-6.711,0-13.379,0-20.068,0c0,3.997,0,7.954,0,11.94c6.705,0,13.373,0,20.068,0C22.097,9.944,22.097,6,22.097,1.989z
			 M11.928,16.603c0.489,0.015,0.829-0.277,0.817-0.664c-0.013-0.422-0.22-0.709-0.662-0.756c-0.401-0.043-0.795,0.307-0.774,0.703
			C11.332,16.311,11.57,16.565,11.928,16.603z"/>
		<path fill="#EF3D5B" d="M12.541,12.467c0-1.252,0-2.477,0-3.735c1.963,0,3.892,0,5.861,0c0,1.248,0,2.473,0,3.735
			C16.44,12.467,14.51,12.467,12.541,12.467z"/>
		<path fill="#EF3D5B" d="M11.513,3.505c0,1.247,0,2.458,0,3.715c-1.94,0-3.871,0-5.846,0c0-1.217,0-2.441,0-3.715
			C7.591,3.505,9.52,3.505,11.513,3.505z"/>
		<path fill="#EF3D5B" d="M18.409,3.504c0,0.386,0,0.73,0,1.12c-1.953,0-3.881,0-5.856,0c0-0.35,0-0.71,0-1.12
			C14.486,3.504,16.413,3.504,18.409,3.504z"/>
		<path fill="#EF3D5B" d="M12.543,6.089c1.963,0,3.892,0,5.858,0c0,0.391,0,0.751,0,1.144c-1.965,0-3.892,0-5.858,0
			C12.543,6.846,12.543,6.485,12.543,6.089z"/>
		<path fill="#EF3D5B" d="M11.513,8.741c0,0.38,0,0.727,0,1.12c-1.945,0-3.873,0-5.846,0c0-0.352,0-0.713,0-1.12
			C7.587,8.741,9.515,8.741,11.513,8.741z"/>
		<path fill="#EF3D5B" d="M11.486,12.476c-1.939,0-3.854,0-5.817,0c0-0.365,0-0.726,0-1.135c1.91,0,3.838,0,5.817,0
			C11.486,11.686,11.486,12.045,11.486,12.476z"/>
	</g>
</g>
</svg>

<svg xmlns="http://www.w3.org/2000/svg" xmlns:xlink="http://www.w3.org/1999/xlink" width="25" height="25" viewBox="0 0 25 25">
  <defs>
    <clipPath id="clip-website">
      <rect width="25" height="25"/>
    </clipPath>
  </defs>
  <g id="website" clip-path="url(#clip-website)">
    <rect width="25" height="25" fill="#fff"/>
    <g id="website-2" data-name="website" transform="translate(0.5 1.597)">
      <g id="Group_4" data-name="Group 4">
        <path id="Path_28" data-name="Path 28" d="M14.161,17.771V19.69c.585,0,1.147.007,1.708,0,.513-.008.741.214.748.745.018,1.373.033,1.372-1.341,1.372q-3.537,0-7.075,0c-.712,0-.81-.108-.817-.828,0-.2.006-.393,0-.59a.6.6,0,0,1,.675-.694c.569,0,1.138,0,1.754,0v-1.92h-.6q-3.921,0-7.841,0C.39,17.769,0,17.391,0,16.419Q0,8.873,0,1.326C0,.393.4,0,1.34,0Q12.011,0,22.682,0C23.665,0,24,.343,24,1.311q0,7.518,0,15.034c0,1.051-.373,1.425-1.413,1.425H14.161ZM22.1,1.989H2.029v11.94H22.1ZM11.928,16.6c.489.015.829-.277.817-.664a.7.7,0,0,0-.662-.756.713.713,0,0,0-.774.7A.684.684,0,0,0,11.928,16.6Z" fill="orange"/>
        <path id="Path_29" data-name="Path 29" d="M12.541,12.467V8.732H18.4v3.735Z" fill="orange"/>
        <path id="Path_30" data-name="Path 30" d="M11.513,3.505V7.22H5.667V3.505Z" fill="orange"/>
        <path id="Path_31" data-name="Path 31" d="M18.409,3.5v1.12H12.553V3.5Z" fill="orange"/>
        <path id="Path_32" data-name="Path 32" d="M12.543,6.089H18.4V7.233H12.543C12.543,6.846,12.543,6.485,12.543,6.089Z" fill="orange"/>
        <path id="Path_33" data-name="Path 33" d="M11.513,8.741v1.12H5.667V8.741Z" fill="orange"/>
        <path id="Path_34" data-name="Path 34" d="M11.486,12.476H5.669V11.341h5.817Z" fill="orange"/>
      </g>
    </g>
  </g>
</svg>
